packages/kaspersky-hexa-ui-icons/src/iconsSVGs/24/StatusWarningSolid.svg

<svg width="24" height="24" viewBox="0 0 24 24" fill="none" xmlns="http://www.w3.org/2000/svg">
<path fill-rule="evenodd" clip-rule="evenodd" d="M14.6252 4.26397C13.4836 2.19993 10.5163 2.19993 9.37473 4.26397L2.02776 17.5476C0.921868 19.5471 2.36803 21.9996 4.65298 21.9996H19.3469C21.6319 21.9996 23.078 19.5471 21.9722 17.5476L14.6252 4.26397ZM12 8.54968C12.5523 8.54968 13 8.9974 13 9.54968V14.5497C13 15.102 12.5523 15.5497 12 15.5497C11.4477 15.5497 11 15.102 11 14.5497V9.54968C11 8.9974 11.4477 8.54968 12 8.54968ZM13 17.5497C13 18.102 12.5523 18.5497 12 18.5497C11.4477 18.5497 11 18.102 11 17.5497C11 16.9974 11.4477 16.5497 12 16.5497C12.5523 16.5497 13 16.9974 13 17.5497Z" fill="black"/>
</svg>

<svg xmlns="http://www.w3.org/2000/svg" width="24" height="24" fill="none" viewBox="0 0 24 24"><path fill="#000" fill-rule="evenodd" d="M14.6252 4.264c-1.1416-2.064-4.1089-2.064-5.2505 0l-7.347 13.2836c-1.1058 1.9995.3403 4.452 2.6253 4.452h14.6939c2.285 0 3.7311-2.4525 2.6253-4.452zM12 8.5497c.5523 0 1 .4477 1 1v5c0 .5523-.4477 1-1 1s-1-.4477-1-1v-5c0-.5523.4477-1 1-1m1 9c0 .5523-.4477 1-1 1s-1-.4477-1-1 .4477-1 1-1 1 .4477 1 1"/></svg>
